common/icons/svgs/ticket.svg

<svg xmlns="http://www.w3.org/2000/svg" width="24" height="24" viewBox="0 0 24 24">
  <g fill="none" fill-rule="evenodd" transform="translate(-120 -360)">
    <rect width="504" height="450" fill="#FFF"/>
    <g transform="translate(120 360)">
      <rect width="24" height="24"/>
      <g fill="#000" fill-rule="nonzero">
        <path d="M23.69,10.4 L21.09,7.8 C20.8286011,7.53805623 20.4439138,7.4418844 20.09,7.55 C19.0897231,7.85318648 18.0038232,7.57613051 17.2710696,6.83077945 C16.538316,6.08542839 16.2798086,4.99496407 16.6,4 C16.7081156,3.64608623 16.6119438,3.26139892 16.35,3 L13.75,0.4 C13.3599625,0.0122764053 12.7300375,0.0122764053 12.34,0.4 L0.5,12.29 C0.112276405,12.6800375 0.112276405,13.3099625 0.5,13.7 L3.1,16.3 C3.36139892,16.5619438 3.74608623,16.6581156 4.1,16.55 C5.0940732,16.2453704 6.17511097,16.514528 6.91029146,17.2497085 C7.64547195,17.984889 7.91462957,19.0659268 7.61,20.06 C7.5018844,20.4139138 7.59805623,20.7986011 7.86,21.06 L10.46,23.66 C10.8500375,24.0477236 11.4799625,24.0477236 11.87,23.66 L23.69,11.81 C24.0777236,11.4199625 24.0777236,10.7900375 23.69,10.4 L23.69,10.4 Z M18.56,14.11 L18.45,14 C18.0606393,13.5995936 17.4204064,13.5906393 17.02,13.98 C16.6195936,14.3693607 16.6106393,15.0095936 17,15.41 L17.12,15.53 L11.12,21.53 L9.65,20 C9.89579285,18.4754285 9.39307316,16.9257095 8.29913801,15.8357379 C7.20520285,14.7457662 5.65366925,14.2486749 4.13,14.5 L2.62,13 L8.62,7 L8.74,7.12 C9.13212218,7.50936073 9.76563924,7.50712214 10.155,7.11499998 C10.5443607,6.72287781 10.5421222,6.08936075 10.15,5.7 L10,5.58 L13,2.58 L14.5,4.08 C14.2468954,5.6077078 14.7463589,7.16368536 15.8413368,8.25866323 C16.9363146,9.35364111 18.4922922,9.85310464 20.02,9.6 L21.52,11.1 L18.56,14.11 Z"/>
        <path d="M12.3,7.85 C11.9032397,7.5102232 11.3118058,7.53306773 10.9424368,7.90243678 C10.5730677,8.27180583 10.5502232,8.86323972 10.89,9.26 L11.42,9.79 C11.6643899,10.0753762 12.0481184,10.1996819 12.413419,10.1118101 C12.7787195,10.0239383 13.0639383,9.73871955 13.1518101,9.37341897 C13.2396819,9.0081184 13.1153762,8.62438988 12.83,8.38 L12.3,7.85 Z M15.52,11.07 C15.1232397,10.7302232 14.5318058,10.7530677 14.1624368,11.1224368 C13.7930677,11.4918058 13.7702232,12.0832397 14.11,12.48 L14.64,13.01 C15.0367603,13.3497768 15.6281942,13.3269323 15.9975632,12.9575632 C16.3669323,12.5881942 16.3897768,11.9967603 16.05,11.6 L15.52,11.07 Z"/>
      </g>
    </g>
  </g>
</svg>

<svg xmlns="http://www.w3.org/2000/svg" viewbox="0 0 24 24"><g class="icon__shape" fill-rule="nonzero"><path d="M23.69 10.4l-2.6-2.6a1 1 0 0 0-1-.25A2.81 2.81 0 0 1 16.6 4a1 1 0 0 0-.25-1L13.75.4a1 1 0 0 0-1.41 0L.5 12.29a1 1 0 0 0 0 1.41l2.6 2.6a1 1 0 0 0 1 .25 2.81 2.81 0 0 1 3.51 3.51 1 1 0 0 0 .25 1l2.6 2.6a1 1 0 0 0 1.41 0l11.82-11.85a1 1 0 0 0 0-1.41zm-5.13 3.71l-.11-.11A1.011 1.011 0 0 0 17 15.41l.12.12-6 6L9.65 20a4.8 4.8 0 0 0-5.52-5.5L2.62 13l6-6 .12.12a1 1 0 0 0 1.41-1.42L10 5.58l3-3 1.5 1.5a4.8 4.8 0 0 0 5.52 5.52l1.5 1.5-2.96 3.01z"/><path d="M12.3 7.85a1 1 0 0 0-1.41 1.41l.53.53a1 1 0 1 0 1.41-1.41l-.53-.53zm3.22 3.22a1 1 0 0 0-1.41 1.41l.53.53a1 1 0 0 0 1.41-1.41l-.53-.53z"/></g></svg>
